src/lib/packages/icons/src/assets/filled/upload.svg

<svg width="24" height="24" viewBox="0 0 24 24" fill="none" xmlns="http://www.w3.org/2000/svg">
<path d="M21 13V18C21 20 20 21 18 21H6C4 21 3 20 3 18V13C3 11 4 9.99999 6 9.99999H11.25V16C11.25 16.414 11.586 16.75 12 16.75C12.414 16.75 12.75 16.414 12.75 16V9.99999H18C20 9.99999 21 11 21 13ZM12.75 4.81097L14.47 6.531C14.616 6.677 14.808 6.75097 15 6.75097C15.192 6.75097 15.384 6.678 15.53 6.531C15.823 6.238 15.823 5.76296 15.53 5.46996L12.53 2.46996C12.461 2.40096 12.3779 2.34598 12.2859 2.30798C12.1029 2.23198 11.8959 2.23198 11.7129 2.30798C11.6209 2.34598 11.538 2.40096 11.469 2.46996L8.46899 5.46996C8.17599 5.76296 8.17599 6.238 8.46899 6.531C8.76199 6.824 9.23703 6.824 9.53003 6.531L11.25 4.81097V9.99999H12.75V4.81097Z" fill="currentColor"/>
</svg>

<svg xmlns="http://www.w3.org/2000/svg" width="24" height="24" fill="none"><path fill="currentColor" d="M21 13v5c0 2-1 3-3 3H6c-2 0-3-1-3-3v-5c0-2 1-3 3-3h5.25v6a.75.75 0 0 0 1.5 0v-6H18c2 0 3 1 3 3Zm-8.25-8.189 1.72 1.72a.748.748 0 0 0 1.06 0 .75.75 0 0 0 0-1.061l-3-3a.75.75 0 0 0-.817-.162.748.748 0 0 0-.244.162l-3 3A.75.75 0 1 0 9.53 6.531l1.72-1.72V10h1.5V4.811Z"/></svg>
